X:1
T:Andakten
C:Erik Sahlstrm
R:Gnglt
S:Ginge Musickanter
O:Uppland
M: 2/4
L: 1/16
Q:1/4=60
K:Am
V:1
E2 |: (AB)A^G A2AB | c2ce c2c2 | (Bc)B^G (EG)Bc | A6 G2 |
(cd)cG (EG)ce | g4 (ec)eg | !trill!e2ef a2g2 | e8 :: [aF]4 (fe)fa |
[gE]4 (ec)eg | [fD]2[fD]2 (dB)df | (ea)ec A2AB | c4 e2c2 | (Bc)B^G (EG)Bc | A8 :|
V:2
E2 |: (EF)ED E2E^G | A2Ac A2A2 | (^GA)GE (ED)B,D | [AC]6 E2 |
(GA)GE (CE)Gc | e4 (cG)ce | c2Ac f2e2 | [eG]8 :: f4 (cA)cf |
e4 (cG)ce | d4 (B^G)Ed | (ce)cA E2EA | A4 c2A2 | (^GA)GE (ED)B,D | C8 :|
